!!!ONB: MCCC : IJB0063_05 : Extracted Monophonic Melody
!!!COM: Bach, Johann Sebastian
!!!OPR: Cello Suite No.1
!!!OMV: 5
!!!SCT: BWV 1007
!!!ODT: 1717///
**kern
*thru
*staff1
*clefF4
*k[f#]
*G:
*M3/4
*>A
=1-
8GG
8D
4B
8A
16B
16c
=2
8B
8A
8G
8F#
8G
8D
=3
8E
8G
8c
8A
8F#
8d
=4
2B
4A
=5
8AA
8F#
4c
8B
16c
16d
=6
8c
8B
8A
8G
8F#
8E
=7
8F#
16G
16A
8G
8F#
8E
8F#
=8
4D
4AA
4DD
=9
*>A
=1-
8GG
8D
4B
8A
16B
16c
=2
8B
8A
8G
8F#
8G
8D
=3
8E
8G
8c
8A
8F#
8d
=4
2B
4A
=5
8AA
8F#
4c
8B
16c
16d
=6
8c
8B
8A
8G
8F#
8E
=7
8F#
16G
16A
8G
8F#
8E
8F#
=8
4D
4AA
4DD
=9
*>B
8D
8F#
4A
8G
16A
16B
=10
8A
8G
8F#
8E
8D
8F#
=11
8BB
8D
8G#
8A
8B
8d
=12
8AA
8d
8c
8B
4c
=13
8D#
8F#
8A
8c
8B
8A
=14
8B
8E
8GG
8A
8c
8B
=15
8A
8G
8F#
8E
8BB
8D#
=16
4.EE
8E
8D
8C
=17
8BB
8D
4G
8D
16E
16F
=18
8F
8D
8E
8C
8CC
8BB
=19
8C#
8E
4A
8E
16F#
16G
=20
8G
8E
8F#
8D
8DD
8AA
=21
8D
8F#
8A
8c
8B
8d
=22
8E
8G
8B
8d
8c
8e
=23
8d
8F#
8G
8BB
8DD
8F#
=24
2.G
=25
*>B
8D
8F#
4A
8G
16A
16B
=10
8A
8G
8F#
8E
8D
8F#
=11
8BB
8D
8G#
8A
8B
8d
=12
8AA
8d
8c
8B
4c
=13
8D#
8F#
8A
8c
8B
8A
=14
8B
8E
8GG
8A
8c
8B
=15
8A
8G
8F#
8E
8BB
8D#
=16
4.EE
8E
8D
8C
=17
8BB
8D
4G
8D
16E
16F
=18
8F
8D
8E
8C
8CC
8BB
=19
8C#
8E
4A
8E
16F#
16G
=20
8G
8E
8F#
8D
8DD
8AA
=21
8D
8F#
8A
8c
8B
8d
=22
8E
8G
8B
8d
8c
8e
=23
8d
8F#
8G
8BB
8DD
8F#
=24
2.G
==
*-
